X:82
T:THRSPSK1- Thrie Sheips Skinns
S:Skene MS via Dauney's 'Ancient Scottish Melodies'
Q:1/4=120
L:1/4
M:C
K:AMixolydian
Ddfg|a2Df|g2fe|a2e2|Ddf/e/f/g/|a2Df|g/e/f/g/ f/d/e/f/|a2e2|\
dded|Dded|edcB|c2A2|de/f/ g/f/e/d/|e/d/e/f/ g/f/e/d/|\
e/f/g/f/ g/f/e/d/|c2A2|]

